X: 62
T:Limerick Rake
R:Jig
Z:Added by alf.warnock@rogers.com.  Song played as jig
M:6/8
L:1/8
K:D
E|EGF EDE|GAB e2e|dBB AFG|AFE D2D|
EGF EDE|GAB e2e|dBB AGF|E3 E2:|
B|Bee efe|dBc d2d|eBB AFG|AFE D2D|
EGF EDE|GAB e2e|dBB AGF|E3 E3:|

